X:1
T:Title
%%score { ( 1 2 ) | ( 3 4 ) }
L:1/8
M:none
K:Bb
V:1 treble nm="Piano left hand"
V:2 treble 
V:3 bass 
V:4 bass 
V:1
"^Double chant in B flat" B8 | d4 d4 | B8 | F8 | c4 B4 | A4 G4 | F8 | G8 | G4 B4 | B8 | F8 | %11
 F4 F4 | c4 A4 |"^James Gibb (after Schubert)" B8 |] %14
V:2
 D8 | F4 B4 | F8 | F8 | F4 F4 | F6 =E2 | F8 | E8 | E4 G4 | F8 | C8 | C4 D4 | E4 C4 | D8 |] %14
V:3
 F,8 | B,4 F,4 | D8 | A,8 | A,4 B,4 | A,4 B,4 | A,8 | B,8 | C4 _D4 | D8 | A,8 | A,4 B,4 | A,4 A,4 | %13
 B,8 |] %14
V:4
 B,,8 | B,,4 B,,4 | B,,8 | F,8 | F,4 F,4 | C,4 C,4 | F,8 | E,8 | E,4 E,4 | B,,8 | F,8 | F,4 F,4 | %12
 F,,4 F,,4 | B,,8 |] %14

